cll1-gdx/artwork/card-data/images/openclipart.org/yes-jetxee-check-sign-and-cross-sign.svg

<?xml version="1.0" encoding="UTF-8" standalone="no"?>
<!-- Created with Inkscape (http://www.inkscape.org/) -->
<svg
    xmlns:inkscape="http://www.inkscape.org/namespaces/inkscape"
    xmlns:rdf="http://www.w3.org/1999/02/22-rdf-syntax-ns#"
    xmlns="http://www.w3.org/2000/svg"
    xmlns:cc="http://web.resource.org/cc/"
    xmlns:dc="http://purl.org/dc/elements/1.1/"
    xmlns:sodipodi="http://sodipodi.sourceforge.net/DTD/sodipodi-0.dtd"
    xmlns:svg="http://www.w3.org/2000/svg"
    xmlns:ns1="http://sozi.baierouge.fr"
    xmlns:xlink="http://www.w3.org/1999/xlink"
    id="svg2"
    sodipodi:docname="check.svg"
    inkscape:export-filename="/home/sergey/pix/shared/check.png"
    viewBox="0 0 106.69 46.126"
    sodipodi:version="0.32"
    inkscape:export-xdpi="90"
    version="1.0"
    inkscape:output_extension="org.inkscape.output.svg.inkscape"
    inkscape:export-ydpi="90"
    inkscape:version="0.45.1"
    sodipodi:docbase="/home/sergey/pix/shared"
  >
  <sodipodi:namedview
      id="base"
      bordercolor="#666666"
      inkscape:pageshadow="2"
      guidetolerance="10.0"
      pagecolor="#ffffff"
      gridtolerance="10.0"
      inkscape:zoom="4.2395833"
      objecttolerance="10.0"
      borderopacity="1.0"
      inkscape:current-layer="svg2"
      inkscape:cx="29.780401"
      inkscape:cy="17.464263"
      inkscape:window-y="25"
      inkscape:window-x="0"
      inkscape:window-height="621"
      inkscape:pageopacity="0.0"
      inkscape:window-width="948"
  />
  <g
      id="layer1"
      transform="translate(-4.25 1.1205)"
    >
    <path
        id="rect2160"
        style="fill:#000000"
        d="m4.25 4.4688v38.687h38.688v-38.687l-38.688-0.0002zm6.312 5.5622h26.063v27.594h-26.063v-27.594z"
    />
    <path
        id="path2170"
        style="stroke:#d40000;stroke-width:9;fill:none"
        d="m16.039 15.645l5.859 16.84 21.349-29.106"
    />
  </g
  >
  <g
      id="g2159"
      transform="translate(63.75 1.1205)"
    >
    <path
        id="path2161"
        style="fill:#000000"
        d="m4.25 4.4688v38.687h38.688v-38.687l-38.688-0.0002zm6.312 5.5622h26.063v27.594h-26.063v-27.594z"
    />
    <path
        id="path2163"
        sodipodi:nodetypes="cccc"
        style="stroke:#d40000;stroke-width:9;fill:none"
        d="m12.699 40.505l24.18-28.87m-22.727 2.595l22.134 22.029"
    />
  </g
  >
  <metadata
    >
    <rdf:RDF
      >
      <cc:Work
        >
        <dc:format
          >image/svg+xml</dc:format
        >
        <dc:type
            rdf:resource="http://purl.org/dc/dcmitype/StillImage"
        />
        <cc:license
            rdf:resource="http://creativecommons.org/licenses/publicdomain/"
        />
        <dc:publisher
          >
          <cc:Agent
              rdf:about="http://openclipart.org/"
            >
            <dc:title
              >Openclipart</dc:title
            >
          </cc:Agent
          >
        </dc:publisher
        >
        <dc:title
          >check sign and cross sign</dc:title
        >
        <dc:date
          >2008-01-16T09:51:22</dc:date
        >
        <dc:description
          >Classic checkmark icon (“yes”) and its companion cross icon (“no”). Red tick and cross, black ballot box outlines. Ballot box internal is transparent.</dc:description
        >
        <dc:source
          >https://openclipart.org/detail/11118/check-sign-and-cross-sign-by-jetxee</dc:source
        >
        <dc:creator
          >
          <cc:Agent
            >
            <dc:title
              >jetxee</dc:title
            >
          </cc:Agent
          >
        </dc:creator
        >
        <dc:subject
          >
          <rdf:Bag
            >
            <rdf:li
              >accept</rdf:li
            >
            <rdf:li
              >black</rdf:li
            >
            <rdf:li
              >cancel</rdf:li
            >
            <rdf:li
              >check</rdf:li
            >
            <rdf:li
              >checkbox</rdf:li
            >
            <rdf:li
              >colour</rdf:li
            >
            <rdf:li
              >cross</rdf:li
            >
            <rdf:li
              >icon</rdf:li
            >
            <rdf:li
              >okay</rdf:li
            >
            <rdf:li
              >red</rdf:li
            >
            <rdf:li
              >reject</rdf:li
            >
            <rdf:li
              >sign</rdf:li
            >
            <rdf:li
              >tick</rdf:li
            >
            <rdf:li
              >yes</rdf:li
            >
          </rdf:Bag
          >
        </dc:subject
        >
      </cc:Work
      >
      <cc:License
          rdf:about="http://creativecommons.org/licenses/publicdomain/"
        >
        <cc:permits
            rdf:resource="http://creativecommons.org/ns#Reproduction"
        />
        <cc:permits
            rdf:resource="http://creativecommons.org/ns#Distribution"
        />
        <cc:permits
            rdf:resource="http://creativecommons.org/ns#DerivativeWorks"
        />
      </cc:License
      >
    </rdf:RDF
    >
  </metadata
  >
</svg
>

<?xml version="1.0" encoding="UTF-8" standalone="no"?>
<!-- Created with Inkscape (http://www.inkscape.org/) -->

<svg
   xmlns:dc="http://purl.org/dc/elements/1.1/"
   xmlns:cc="http://creativecommons.org/ns#"
   xmlns:rdf="http://www.w3.org/1999/02/22-rdf-syntax-ns#"
   xmlns:svg="http://www.w3.org/2000/svg"
   xmlns="http://www.w3.org/2000/svg"
   xmlns:sodipodi="http://sodipodi.sourceforge.net/DTD/sodipodi-0.dtd"
   xmlns:inkscape="http://www.inkscape.org/namespaces/inkscape"
   id="svg2"
   sodipodi:docname="yes-jetxee-check-sign-and-cross-sign.svg"
   inkscape:export-filename="/home/sergey/pix/shared/check.png"
   viewBox="0 0 106.69 46.126"
   sodipodi:version="0.32"
   inkscape:export-xdpi="90"
   version="1.0"
   inkscape:output_extension="org.inkscape.output.svg.inkscape"
   inkscape:export-ydpi="90"
   inkscape:version="0.92.1 r15371"
   width="113.80267"
   height="49.201065">
  <defs
     id="defs12" />
  <sodipodi:namedview
     id="base"
     bordercolor="#666666"
     inkscape:pageshadow="2"
     guidetolerance="10.0"
     pagecolor="#ffffff"
     gridtolerance="10.0"
     inkscape:zoom="4.2395833"
     objecttolerance="10.0"
     borderopacity="1.0"
     inkscape:current-layer="svg2"
     inkscape:cx="29.780401"
     inkscape:cy="17.464263"
     inkscape:window-y="25"
     inkscape:window-x="0"
     inkscape:window-height="621"
     inkscape:pageopacity="0.0"
     inkscape:window-width="948"
     showgrid="false" />
  <g
     id="layer1"
     transform="translate(-4.25,1.1205)">
    <path
       id="rect2160"
       style="fill:#000000"
       d="m 4.25,4.4688 v 38.687 H 42.938 V 4.4688 L 4.25,4.4686 Z m 6.312,5.5622 H 36.625 V 37.625 H 10.562 Z"
       inkscape:connector-curvature="0" />
    <path
       id="path2170"
       style="fill:none;stroke:#d40000;stroke-width:9"
       d="M 16.039,15.645 21.898,32.485 43.247,3.379"
       inkscape:connector-curvature="0" />
  </g>
  <g
     id="g2159"
     transform="translate(63.75,1.1205)">
    <path
       id="path2161"
       style="fill:#000000"
       d="m 4.25,4.4688 v 38.687 H 42.938 V 4.4688 L 4.25,4.4686 Z m 6.312,5.5622 H 36.625 V 37.625 H 10.562 Z"
       inkscape:connector-curvature="0" />
    <path
       id="path2163"
       sodipodi:nodetypes="cccc"
       style="fill:none;stroke:#d40000;stroke-width:9"
       d="m 12.699,40.505 24.18,-28.87 M 14.152,14.23 36.286,36.259"
       inkscape:connector-curvature="0" />
  </g>
  <metadata
     id="metadata9">
    <rdf:RDF>
      <cc:Work>
        <dc:format>image/svg+xml</dc:format>
        <dc:type
           rdf:resource="http://purl.org/dc/dcmitype/StillImage" />
        <cc:license
           rdf:resource="http://creativecommons.org/licenses/publicdomain/" />
        <dc:publisher>
          <cc:Agent
             rdf:about="http://openclipart.org/">
            <dc:title>Openclipart</dc:title>
          </cc:Agent>
        </dc:publisher>
        <dc:title>check sign and cross sign</dc:title>
        <dc:date>2008-01-16T09:51:22</dc:date>
        <dc:description>Classic checkmark icon (“yes”) and its companion cross icon (“no”). Red tick and cross, black ballot box outlines. Ballot box internal is transparent.</dc:description>
        <dc:source>https://openclipart.org/detail/11118/check-sign-and-cross-sign-by-jetxee</dc:source>
        <dc:creator>
          <cc:Agent>
            <dc:title>jetxee</dc:title>
          </cc:Agent>
        </dc:creator>
        <dc:subject>
          <rdf:Bag>
            <rdf:li>accept</rdf:li>
            <rdf:li>black</rdf:li>
            <rdf:li>cancel</rdf:li>
            <rdf:li>check</rdf:li>
            <rdf:li>checkbox</rdf:li>
            <rdf:li>colour</rdf:li>
            <rdf:li>cross</rdf:li>
            <rdf:li>icon</rdf:li>
            <rdf:li>okay</rdf:li>
            <rdf:li>red</rdf:li>
            <rdf:li>reject</rdf:li>
            <rdf:li>sign</rdf:li>
            <rdf:li>tick</rdf:li>
            <rdf:li>yes</rdf:li>
          </rdf:Bag>
        </dc:subject>
      </cc:Work>
      <cc:License
         rdf:about="http://creativecommons.org/licenses/publicdomain/">
        <cc:permits
           rdf:resource="http://creativecommons.org/ns#Reproduction" />
        <cc:permits
           rdf:resource="http://creativecommons.org/ns#Distribution" />
        <cc:permits
           rdf:resource="http://creativecommons.org/ns#DerivativeWorks" />
      </cc:License>
    </rdf:RDF>
  </metadata>
</svg>
